X: 43504
T: Yester House
R: strathspey
M: 4/4
K: Amajor
a|e<Ae>c d=GB=g|e<Ae>d ef=g(b|a)>f=g>e d=GBd|~e>d=g>B {B}A2A:|
|:B|Aaa>f =g=GBd|Aaa>g aAab|=g<be<g d=GBd|e>d=g>B {B}A2A:|

